svg/design/vector_group_line.svg

<?xml version="1.0" encoding="UTF-8"?>
<svg width="24px" height="24px" viewBox="0 0 24 24" version="1.1" xmlns="http://www.w3.org/2000/svg" xmlns:xlink="http://www.w3.org/1999/xlink">
    <title>vector_group_line</title>
    <g id="Icon" stroke="none" stroke-width="1" fill="none" fill-rule="evenodd">
        <g id="Design" transform="translate(-960.000000, -288.000000)">
            <g id="vector_group_line" transform="translate(960.000000, 288.000000)">
                <path d="M24,0 L24,24 L0,24 L0,0 L24,0 Z M12.5935,23.2578 L12.5819,23.2595 L12.5109,23.295 L12.4919,23.2987 L12.4767,23.295 L12.4057,23.2595 C12.3958,23.2564 12.387,23.259 12.3821,23.2649 L12.378,23.2758 L12.3609,23.7031 L12.3659,23.7235 L12.3769,23.7357 L12.4805,23.8097 L12.4953,23.8136 L12.5071,23.8097 L12.6107,23.7357 L12.6233,23.7197 L12.6267,23.7031 L12.6096,23.2758 C12.6076,23.2657 12.601,23.2593 12.5935,23.2578 Z M12.8584,23.1453 L12.8445,23.1473 L12.6598,23.2397 L12.6499,23.2499 L12.6472,23.2611 L12.6651,23.6906 L12.6699,23.7034 L12.6784,23.7105 L12.8793,23.8032 C12.8914,23.8069 12.9022,23.803 12.9078,23.7952 L12.9118,23.7812 L12.8777,23.1665 C12.8753,23.1546 12.8674,23.147 12.8584,23.1453 Z M12.143,23.1473 C12.1332,23.1424 12.1222,23.1453 12.1156,23.1526 L12.1099,23.1665 L12.0758,23.7812 C12.0751,23.7927 12.0828,23.8019 12.0926,23.8046 L12.1083,23.8032 L12.3092,23.7105 L12.3186,23.7024 L12.3225,23.6906 L12.3404,23.2611 L12.3372,23.2485 L12.3278,23.2397 L12.143,23.1473 Z" id="MingCute" fill-rule="nonzero"></path>
                <path d="M18.5,3 C19.8807,3 21,4.11929 21,5.5 C21,6.31791 20.6072,7.04408 20,7.50018 L20,11.4998 C20.6072,11.9559 21,12.6821 21,13.5 C21,14.8807 19.8807,16 18.5,16 C17.6821,16 16.9559,15.6072 16.4998,15 L15,15 L15,16.4998 C15.6072,16.9559 16,17.6821 16,18.5 C16,19.8807 14.8807,21 13.5,21 C12.6821,21 11.9559,20.6072 11.4998,20 L7.50018,20 C7.04408,20.6072 6.31791,21 5.5,21 C4.11929,21 3,19.8807 3,18.5 C3,17.6821 3.39278,16.9559 4,16.4998 L4,12.5002 C3.39278,12.0441 3,11.3179 3,10.5 C3,9.11929 4.11929,8 5.5,8 C6.31791,8 7.04408,8.39278 7.50018,9 L9,9 L9,7.50018 C8.39278,7.04408 8,6.31791 8,5.5 C8,4.11929 9.11929,3 10.5,3 C11.3179,3 12.0441,3.39278 12.5002,4 L16.4998,4 C16.9559,3.39278 17.6821,3 18.5,3 Z M13.5,18 C13.2239,18 13,18.2239 13,18.5 C13,18.7761 13.2239,19 13.5,19 C13.7761,19 14,18.7761 14,18.5 C14,18.2239 13.7761,18 13.5,18 Z M5.5,18 C5.22386,18 5,18.2239 5,18.5 C5,18.7761 5.22386,19 5.5,19 C5.77614,19 6,18.7761 6,18.5 C6,18.2239 5.77614,18 5.5,18 Z M9,11 L7.94999,11 L7.90902943,11.1706372 C7.67524202,12.0122846 7.01225417,12.6752877 6.17063199,12.9090459 L6,12.95 L6,16.05 L6.17063199,16.0909541 C7.01225417,16.3247123 7.67524202,16.9877154 7.90902943,17.8293628 L7.94999,18 L11.05,18 L11.0909541,17.8293628 C11.3247123,16.9877154 11.9877154,16.3247123 12.8293628,16.0909541 L13,16.05 L13,15 L12.5002,15 L12.3902327,15.136236 C11.9318343,15.6653065 11.2549846,16 10.5,16 C9.11929,16 8,14.8807 8,13.5 C8,12.7450154 8.33467645,12.0681657 8.86376011,11.6097673 L9,11.4998 L9,11 Z M18.5,13 C18.2239,13 18,13.2239 18,13.5 C18,13.7761 18.2239,14 18.5,14 C18.7761,14 19,13.7761 19,13.5 C19,13.2239 18.7761,13 18.5,13 Z M10.5,13 C10.2239,13 10,13.2239 10,13.5 C10,13.7761 10.2239,14 10.5,14 C10.7761,14 11,13.7761 11,13.5 C11,13.2239 10.7761,13 10.5,13 Z M16.05,6 L12.95,6 L12.9090459,6.17063199 C12.6752877,7.01225417 12.0122846,7.67524202 11.1706372,7.90902943 L11,7.94999 L11,11.05 L11.1706372,11.0909541 C12.0122846,11.3247123 12.6752877,11.9877154 12.9090459,12.8293628 L12.95,13 L16.05,13 L16.0909541,12.8293628 C16.3247123,11.9877154 16.9877154,11.3247123 17.8293628,11.0909541 L18,11.05 L18,7.94999 L17.8293628,7.90902943 C16.9877154,7.67524202 16.3247123,7.01225417 16.0909541,6.17063199 L16.05,6 Z M5.5,10 C5.22386,10 5,10.2239 5,10.5 C5,10.7761 5.22386,11 5.5,11 C5.77614,11 6,10.7761 6,10.5 C6,10.2239 5.77614,10 5.5,10 Z M18.5,5 C18.2239,5 18,5.22386 18,5.5 C18,5.77614 18.2239,6 18.5,6 C18.7761,6 19,5.77614 19,5.5 C19,5.22386 18.7761,5 18.5,5 Z M10.5,5 C10.2239,5 10,5.22386 10,5.5 C10,5.77614 10.2239,6 10.5,6 C10.7761,6 11,5.77614 11,5.5 C11,5.22386 10.7761,5 10.5,5 Z" id="形状" fill="#09244B"></path>
            </g>
        </g>
    </g>
</svg>

<svg xmlns="http://www.w3.org/2000/svg" width="24" height="24"><g fill="none" fill-rule="evenodd"><path d="M24 0v24H0V0h24ZM12.594 23.258l-.012.002-.071.035-.02.004-.014-.004-.071-.036c-.01-.003-.019 0-.024.006l-.004.01-.017.428.005.02.01.013.104.074.015.004.012-.004.104-.074.012-.016.004-.017-.017-.427c-.002-.01-.009-.017-.016-.018Zm.264-.113-.014.002-.184.093-.01.01-.003.011.018.43.005.012.008.008.201.092c.012.004.023 0 .029-.008l.004-.014-.034-.614c-.003-.012-.01-.02-.02-.022Zm-.715.002a.023.023 0 0 0-.027.006l-.006.014-.034.614c0 .012.007.02.017.024l.015-.002.201-.093.01-.008.003-.011.018-.43-.003-.012-.01-.01-.184-.092Z"/><path fill="#09244B" d="M18.5 3A2.5 2.5 0 0 1 20 7.5v4a2.5 2.5 0 1 1-3.5 3.5H15v1.5a2.5 2.5 0 1 1-3.5 3.5h-4A2.5 2.5 0 1 1 4 16.5v-4A2.5 2.5 0 1 1 7.5 9H9V7.5A2.5 2.5 0 1 1 12.5 4h4c.456-.607 1.182-1 2-1Zm-5 15a.5.5 0 1 0 0 1 .5.5 0 0 0 0-1Zm-8 0a.5.5 0 1 0 0 1 .5.5 0 0 0 0-1ZM9 11H7.95l-.041.17a2.505 2.505 0 0 1-1.738 1.739L6 12.95v3.1l.17.041a2.505 2.505 0 0 1 1.739 1.738L7.95 18h3.1l.041-.17a2.505 2.505 0 0 1 1.738-1.739L13 16.05V15h-.5l-.11.136a2.5 2.5 0 1 1-3.526-3.526L9 11.5V11Zm9.5 2a.5.5 0 1 0 0 1 .5.5 0 0 0 0-1Zm-8 0a.5.5 0 1 0 0 1 .5.5 0 0 0 0-1Zm5.55-7h-3.1l-.041.17a2.505 2.505 0 0 1-1.738 1.739L11 7.95v3.1l.17.041a2.505 2.505 0 0 1 1.739 1.738l.041.171h3.1l.041-.17a2.505 2.505 0 0 1 1.738-1.739L18 11.05v-3.1l-.17-.041a2.505 2.505 0 0 1-1.739-1.738L16.05 6ZM5.5 10a.5.5 0 1 0 0 1 .5.5 0 0 0 0-1Zm13-5a.5.5 0 1 0 0 1 .5.5 0 0 0 0-1Zm-8 0a.5.5 0 1 0 0 1 .5.5 0 0 0 0-1Z"/></g></svg>
